X: 9033
T: Da Corbie An' Da Craw
R: reel
M: 4/4
K: Dmixolydian
B|:A2 FD E2 c2|EFGE CDEC|DDFD E2 c2|1 EFGE [G,3D3] B:|2 EFGE [G,3D3] F||
K:D
AddA d2 df|efec d2 FA|Add>c d2 eg|f>de>c d2 AF|
Addc d2 df|efec d2 FA|dB=cA B2 Gc|E>FG>E [G,3D3]||

